X:79
T:Klimperjig
R:jig
M:6/8
C:Jens Wollschlger
O:Germany
K:D
A|AFAAFA|dcde2g|fgadcd|efgcB
A|AFAAFA|dcde2g|fededc|d3d2
A|AFAAFA|dcde2g|fgadcd|efgcB
A|AFAAFA|dcde2g|fededc|d3de
K:Dmix
f|afdfaf|gecege|fdAdef|e^cAA2
f|afdfaf|gecege|fdfece|d3de
f|afdfaf|gecege|fdAdef|e^cAA2
K:D
G|FEDF2A|dcde2g|fededc|d3d2
